images/clients-icons/Client 3.svg

<svg width="170" height="92" viewBox="0 0 170 92" fill="none" xmlns="http://www.w3.org/2000/svg">
<rect x="0.5" y="0.5" width="169" height="91" rx="3.5" stroke="#AFB1B8"/>
<path d="M68.4062 65.1014C68.4221 65.1018 68.4378 65.1049 68.4523 65.1106C68.4668 65.1163 68.4799 65.1245 68.4907 65.1346L68.7089 65.3431C68.5395 65.5118 68.3303 65.6468 68.0954 65.7388C67.8203 65.8391 67.5239 65.8875 67.2257 65.8809C66.9454 65.8859 66.667 65.8408 66.4077 65.7482C66.1738 65.6632 65.9637 65.5356 65.7915 65.3739C65.6158 65.2062 65.4805 65.0096 65.3935 64.7958C65.2982 64.5574 65.2511 64.3065 65.2544 64.0542C65.2505 63.8003 65.3014 63.548 65.4044 63.3103C65.4996 63.0951 65.6433 62.8986 65.827 62.7322C66.0132 62.5691 66.2359 62.4408 66.4813 62.3555C66.7499 62.265 67.0358 62.22 67.3238 62.2228C67.5913 62.2172 67.8574 62.2582 68.1063 62.3436C68.3222 62.425 68.5205 62.538 68.6925 62.6777L68.5098 62.9004C68.4972 62.9161 68.4815 62.9297 68.4635 62.9407C68.4419 62.9535 68.4159 62.9594 68.3899 62.9573C68.3616 62.9556 68.3343 62.9474 68.3108 62.9336L68.2126 62.8743L68.0763 62.7985C68.0175 62.7704 67.9564 62.7458 67.8936 62.7251C67.8128 62.6999 67.7298 62.6801 67.6455 62.6659C67.5385 62.6487 67.4299 62.6408 67.3211 62.6422C67.1137 62.6399 66.9079 62.6737 66.7158 62.7417C66.5367 62.8046 66.3749 62.8999 66.2414 63.0212C66.1054 63.1503 66.0007 63.3018 65.9333 63.4667C65.8565 63.6553 65.8187 63.8542 65.8215 64.0542C65.8182 64.2574 65.8561 64.4595 65.9333 64.6513C65.9998 64.8147 66.1027 64.9653 66.2359 65.0943C66.3608 65.2146 66.5156 65.3086 66.6885 65.3692C66.8665 65.4333 67.0575 65.4655 67.2502 65.4639C67.3615 65.4654 67.4727 65.4591 67.5828 65.445C67.7626 65.4259 67.9351 65.3716 68.0872 65.2862C68.1635 65.2425 68.2356 65.1934 68.3026 65.1393C68.3306 65.1161 68.3675 65.1026 68.4062 65.1014Z" fill="#AFB1B8"/>
<path d="M74.7043 64.0538C74.7077 64.3052 74.6578 64.5549 74.5571 64.7906C74.4682 65.0043 74.3283 65.1993 74.1464 65.3626C73.9645 65.526 73.7449 65.654 73.502 65.7382C72.9682 65.9151 72.3781 65.9151 71.8443 65.7382C71.6029 65.6527 71.3847 65.5244 71.2036 65.3615C71.0218 65.1952 70.8808 64.9986 70.7891 64.7835C70.5927 64.3063 70.5927 63.7847 70.7891 63.3076C70.8822 63.0923 71.023 62.8951 71.2036 62.7271C71.3862 62.5694 71.6043 62.446 71.8443 62.3647C72.3774 62.1846 72.9688 62.1846 73.502 62.3647C73.7442 62.4502 73.9633 62.5784 74.1454 62.7414C74.3249 62.906 74.4648 63.1001 74.5571 63.3123C74.6581 63.5495 74.708 63.8009 74.7043 64.0538ZM74.1318 64.0538C74.1361 63.8527 74.101 63.6525 74.0282 63.4615C73.9671 63.298 73.8677 63.1472 73.7364 63.0185C73.6086 62.8968 73.4512 62.8013 73.2757 62.739C72.8878 62.6095 72.4584 62.6095 72.0706 62.739C71.895 62.8013 71.7376 62.8968 71.6098 63.0185C71.4767 63.1464 71.3763 63.2974 71.3154 63.4615C71.1766 63.8472 71.1766 64.2604 71.3154 64.6461C71.3769 64.81 71.4772 64.9609 71.6098 65.0891C71.7378 65.2101 71.8952 65.3048 72.0706 65.3663C72.4591 65.4925 72.8871 65.4925 73.2757 65.3663C73.451 65.3048 73.6084 65.2101 73.7364 65.0891C73.8672 64.9601 73.9664 64.8094 74.0282 64.6461C74.1013 64.4552 74.1364 64.2549 74.1318 64.0538Z" fill="#AFB1B8"/>
<path d="M79.0013 64.6747L79.0585 64.8074C79.0803 64.76 79.0994 64.7173 79.1212 64.6747C79.142 64.6302 79.1657 64.5867 79.1921 64.5444L80.5853 62.3438C80.6126 62.3059 80.6371 62.2823 80.6644 62.2751C80.7015 62.2653 80.7402 62.2613 80.7789 62.2633H81.1906V65.8425H80.7026V63.2108C80.7026 63.1776 80.7026 63.1397 80.7026 63.0995C80.6999 63.0585 80.6999 63.0173 80.7026 62.9763L79.3012 65.2077C79.2834 65.2411 79.2549 65.2694 79.2191 65.2891C79.1833 65.3089 79.1418 65.3192 79.0994 65.319H79.0203C78.9779 65.3195 78.9362 65.3093 78.9003 65.2895C78.8645 65.2697 78.8361 65.2413 78.8186 65.2077L77.3763 62.9621C77.3763 63.0047 77.3763 63.0474 77.3763 63.09C77.3763 63.1326 77.3763 63.1705 77.3763 63.2037V65.8354H76.9046V62.2633H77.3163C77.355 62.2613 77.3937 62.2653 77.4308 62.2751C77.4646 62.2897 77.4916 62.314 77.5072 62.3438L78.9304 64.5468C78.9583 64.5875 78.9821 64.6303 79.0013 64.6747Z" fill="#AFB1B8"/>
<path d="M84.2443 64.4969V65.8376H83.699V62.2632H84.915C85.1445 62.2594 85.3734 62.2857 85.5939 62.3413C85.7704 62.3848 85.934 62.4607 86.0737 62.564C86.1948 62.6608 86.2882 62.7808 86.3464 62.9146C86.4107 63.0604 86.4422 63.2156 86.4391 63.3717C86.4415 63.5285 86.4072 63.684 86.3382 63.8289C86.2726 63.966 86.1719 64.0884 86.0437 64.1866C85.9038 64.2941 85.7394 64.3749 85.5612 64.4234C85.3489 64.4824 85.1269 64.5104 84.9041 64.5063L84.2443 64.4969ZM84.2443 64.1131H84.9041C85.0474 64.1148 85.1901 64.0964 85.3267 64.0587C85.4394 64.0257 85.5432 63.9733 85.632 63.9047C85.714 63.8391 85.7774 63.7581 85.8174 63.6678C85.8621 63.5723 85.8843 63.4701 85.8829 63.367C85.8892 63.2676 85.8706 63.1683 85.8282 63.0758C85.7858 62.9834 85.7207 62.9 85.6375 62.8317C85.4292 62.6904 85.1676 62.6219 84.9041 62.6398H84.2443V64.1131Z" fill="#AFB1B8"/>
<path d="M91.573 65.8424H91.1422C91.099 65.8438 91.0566 65.8321 91.0223 65.8092C90.9913 65.7869 90.967 65.7585 90.9514 65.7263L90.5806 64.8616H88.7184L88.334 65.7263C88.3198 65.7579 88.2963 65.7857 88.2658 65.8069C88.2312 65.8311 88.1876 65.8437 88.1431 65.8424H87.7123L89.3482 62.2628H89.9153L91.573 65.8424ZM88.8738 64.5134H90.4115L89.7626 63.0564C89.713 62.9468 89.6721 62.8344 89.64 62.72L89.5772 62.9072C89.5582 62.964 89.5363 63.0162 89.5173 63.0588L88.8738 64.5134Z" fill="#AFB1B8"/>
<path d="M93.9287 62.2795C93.9613 62.295 93.9893 62.3169 94.0105 62.3434L96.3962 65.0417C96.3962 64.9991 96.3962 64.9564 96.3962 64.9161C96.3962 64.8759 96.3962 64.8356 96.3962 64.7977V62.2629H96.8842V65.8424H96.6116C96.5728 65.8434 96.5344 65.8361 96.4998 65.8211C96.4661 65.804 96.4365 65.7815 96.4125 65.7548L94.0296 63.0589C94.0322 63.0999 94.0322 63.141 94.0296 63.1821C94.0296 63.2223 94.0296 63.2579 94.0296 63.291V65.8424H93.5416V62.2629H93.8306C93.8643 62.2621 93.8978 62.2677 93.9287 62.2795Z" fill="#AFB1B8"/>
<path d="M100.903 64.4188V65.8402H100.358V64.4188L98.85 62.2631H99.338C99.3801 62.2609 99.4216 62.2718 99.4553 62.2938C99.4849 62.3168 99.5098 62.3441 99.5289 62.3744L100.472 63.765C100.51 63.8242 100.543 63.8787 100.57 63.9308C100.598 63.9829 100.619 64.0327 100.639 64.0824L100.709 63.9284C100.736 63.8721 100.767 63.8175 100.802 63.765L101.732 62.3649C101.751 62.337 101.775 62.3115 101.803 62.2891C101.835 62.2646 101.877 62.2518 101.92 62.2536H102.413L100.903 64.4188Z" fill="#AFB1B8"/>
<path d="M78.7313 56.2561C78.9685 56.2822 79.2085 56.3035 79.4511 56.3225C83.13 54.8926 86.2421 52.5523 88.3986 49.5942C90.5551 46.636 91.6602 43.1912 91.5758 39.6904L87.5215 36.1678C88.3458 39.8951 87.9602 43.7482 86.4078 47.2959C84.8554 50.8437 82.1975 53.9461 78.7313 56.2561Z" fill="#AFB1B8"/>
<path d="M77.2836 56.0923L77.3927 56.1112C81.0966 53.8094 83.9205 50.5951 85.4992 46.8839C87.0779 43.1727 87.3388 39.1353 86.2483 35.2939L80.4736 30.2767C82.8093 34.4008 83.7495 39.0162 83.1847 43.5862C82.62 48.1562 80.5737 52.493 77.2836 56.0923Z" fill="#AFB1B8"/>
<path d="M96.8679 43.8265C95.8868 47.6731 93.504 51.1423 90.0735 53.7189C89.0716 54.4755 87.9909 55.1496 86.8453 55.7324C89.6388 55.019 92.2064 53.7578 94.3502 52.046C96.4939 50.3341 98.1566 48.2174 99.2099 45.859L96.8679 43.8265Z" fill="#AFB1B8"/>
<path d="M95.949 43.2601L92.6146 40.3629C92.5508 43.666 91.47 46.894 89.4845 49.7114C87.499 52.5287 84.6813 54.8327 81.3242 56.3837H81.3406C82.0887 56.3835 82.8362 56.3447 83.579 56.2676C86.7164 55.155 89.488 53.3849 91.6464 51.1152C93.8049 48.8455 95.283 46.1469 95.949 43.2601Z" fill="#AFB1B8"/>
<path d="M77.7662 28.1609L73.7883 24.7C70.2322 25.8939 67.1737 27.9928 65.0133 30.722C62.8529 33.4512 61.6911 36.6835 61.68 39.9959V39.9959C61.6933 43.656 63.1112 47.2077 65.7092 50.0888C68.3072 52.9699 71.937 55.016 76.024 55.903C79.6724 52.041 81.8085 47.2687 82.1218 42.2798C82.4351 37.2908 80.9094 32.3449 77.7662 28.1609Z" fill="#AFB1B8"/>
<path d="M105.14 42.7273C105.126 38.3848 103.134 34.2238 99.5996 31.1532C96.0655 28.0826 91.2763 26.352 86.2783 26.3395C83.9687 26.3374 81.6788 26.7077 79.5248 27.4315L103.88 48.5926C104.714 46.7221 105.141 44.7333 105.14 42.7273Z" fill="#AFB1B8"/>
</svg>

<svg xmlns="http://www.w3.org/2000/svg" width="170" height="92" fill="none"><rect width="169" height="91" x=".5" y=".5" stroke="#AFB1B8" rx="3.5"/><path fill="#AFB1B8" d="M68.406 65.101c.016 0 .032.004.046.01a.121.121 0 0 1 .039.024l.218.208c-.17.169-.379.304-.614.396a2.39 2.39 0 0 1-.87.142c-.28.005-.558-.04-.817-.133a1.794 1.794 0 0 1-.617-.374 1.674 1.674 0 0 1-.397-.578 1.926 1.926 0 0 1-.14-.742 1.724 1.724 0 0 1 .573-1.322c.186-.163.409-.291.654-.377.269-.09.555-.135.843-.132a2.27 2.27 0 0 1 .782.12c.216.082.415.195.587.335l-.183.222a.178.178 0 0 1-.047.04.125.125 0 0 1-.073.017.178.178 0 0 1-.08-.023l-.097-.06-.137-.076a1.548 1.548 0 0 0-.43-.132 1.891 1.891 0 0 0-.325-.024 1.76 1.76 0 0 0-.605.1 1.39 1.39 0 0 0-.475.28c-.136.128-.24.28-.308.445a1.5 1.5 0 0 0-.112.587 1.53 1.53 0 0 0 .112.597c.067.164.17.314.303.443.125.12.28.215.453.275.178.064.369.097.561.095.112.001.223-.005.333-.019a1.316 1.316 0 0 0 .72-.306.171.171 0 0 1 .103-.038ZM74.704 64.054a1.81 1.81 0 0 1-.147.737 1.594 1.594 0 0 1-.41.572 1.889 1.889 0 0 1-.645.375 2.655 2.655 0 0 1-1.658 0 1.91 1.91 0 0 1-.64-.376 1.678 1.678 0 0 1-.415-.578 1.922 1.922 0 0 1 0-1.476c.093-.216.234-.413.415-.58.182-.159.4-.282.64-.363a2.61 2.61 0 0 1 1.658 0c.242.085.461.213.643.376.18.165.32.36.412.571.101.238.151.489.147.742Zm-.572 0a1.566 1.566 0 0 0-.104-.593 1.22 1.22 0 0 0-.752-.722 1.918 1.918 0 0 0-1.205 0 1.295 1.295 0 0 0-.461.28 1.191 1.191 0 0 0-.295.443 1.737 1.737 0 0 0 0 1.184 1.209 1.209 0 0 0 .756.72c.388.127.816.127 1.205 0 .175-.061.332-.156.46-.277.131-.129.23-.28.292-.443.073-.19.108-.391.104-.592ZM79.001 64.675l.057.132c.022-.047.041-.09.063-.132a1.23 1.23 0 0 1 .071-.13l1.393-2.201c.028-.038.052-.062.08-.069a.373.373 0 0 1 .114-.012h.412v3.58h-.488V63.1a.938.938 0 0 1 0-.124L79.3 65.208a.203.203 0 0 1-.082.081.246.246 0 0 1-.12.03h-.079a.243.243 0 0 1-.12-.03.2.2 0 0 1-.081-.081l-1.443-2.246V65.835h-.471v-3.572h.411a.373.373 0 0 1 .115.012c.034.015.06.039.076.069l1.423 2.203a.76.76 0 0 1 .071.128ZM84.244 64.497v1.34H83.7v-3.574h1.216c.23-.004.458.023.679.078.176.044.34.12.48.223a.922.922 0 0 1 .272.35c.065.146.096.302.093.458a.993.993 0 0 1-.395.815c-.14.107-.305.188-.483.236a2.3 2.3 0 0 1-.657.083l-.66-.01Zm0-.384h.66c.143.002.286-.017.423-.054a.924.924 0 0 0 .305-.154.686.686 0 0 0 .25-.538.605.605 0 0 0-.054-.291.69.69 0 0 0-.19-.244 1.172 1.172 0 0 0-.734-.192h-.66v1.473ZM91.573 65.842h-.43a.205.205 0 0 1-.12-.033.222.222 0 0 1-.072-.083l-.37-.864h-1.863l-.384.864a.205.205 0 0 1-.19.116h-.432l1.636-3.58h.567l1.658 3.58Zm-2.7-1.329h1.538l-.648-1.457c-.05-.11-.09-.222-.123-.336l-.063.187c-.019.057-.04.11-.06.152l-.643 1.454ZM93.929 62.28c.032.015.06.037.081.063l2.386 2.699v-2.779h.488v3.58h-.272a.265.265 0 0 1-.112-.022.299.299 0 0 1-.088-.066l-2.382-2.696a.974.974 0 0 1 0 .123v2.66h-.488v-3.58h.289c.033 0 .067.006.098.017ZM100.903 64.419v1.421h-.545V64.42l-1.508-2.156h.488a.197.197 0 0 1 .117.03c.03.024.055.051.074.081l.943 1.391c.038.06.071.114.098.166.028.052.049.102.069.151l.07-.154c.027-.056.058-.11.093-.163l.93-1.4a.35.35 0 0 1 .071-.076.181.181 0 0 1 .117-.035h.493l-1.51 2.165ZM78.731 56.256c.238.026.478.047.72.066 3.679-1.43 6.791-3.77 8.948-6.728 2.156-2.958 3.261-6.403 3.177-9.904l-4.054-3.522c.824 3.727.438 7.58-1.114 11.128-1.553 3.548-4.21 6.65-7.677 8.96Z"/><path fill="#AFB1B8" d="m77.284 56.092.109.02c3.704-2.303 6.528-5.517 8.106-9.228 1.579-3.711 1.84-7.749.75-11.59l-5.775-5.017c2.335 4.124 3.275 8.74 2.71 13.31-.564 4.57-2.61 8.906-5.9 12.505ZM96.868 43.827c-.981 3.846-3.364 7.315-6.794 9.892a21.629 21.629 0 0 1-3.229 2.013c2.794-.713 5.361-1.974 7.505-3.686s3.807-3.829 4.86-6.187l-2.342-2.032Z"/><path fill="#AFB1B8" d="m95.949 43.26-3.334-2.897c-.064 3.303-1.145 6.531-3.13 9.348-1.986 2.818-4.804 5.122-8.16 6.673h.016c.748 0 1.495-.04 2.238-.116 3.137-1.113 5.909-2.883 8.067-5.153 2.159-2.27 3.637-4.968 4.303-7.855ZM77.766 28.16l-3.978-3.46c-3.556 1.194-6.614 3.293-8.775 6.022-2.16 2.73-3.322 5.962-3.333 9.274.013 3.66 1.431 7.212 4.03 10.093 2.597 2.88 6.227 4.927 10.314 5.814 3.648-3.862 5.784-8.634 6.098-13.623.313-4.99-1.213-9.935-4.356-14.12ZM105.14 42.727c-.014-4.342-2.006-8.503-5.54-11.574-3.534-3.07-8.324-4.801-13.322-4.813a21.18 21.18 0 0 0-6.753 1.091l24.355 21.162a14.358 14.358 0 0 0 1.26-5.866Z"/></svg>
